; Generated by CopperCrab
; Tool: New V-Bit
; Depth: 0.1mm
G21 ; mm
G90 ; absolute coordinates
G17 ; XY plane
G0 Z3
G0 X0 Y0
M3 S20000; Start spindle

; ========== Pass 1 ==========
; Move to the first point
G0 Z3
G0 X103.0900 Y-91.5500
; ----- Depth step 0.1 / 0.1 -----
G1 Z-0.1000 F80
G1 X103.0900 Y-91.5600 F400
G1 X103.1500 Y-91.5600 F400
G1 X103.1600 Y-91.5500 F400
G1 X103.1800 Y-91.5400 F400
G1 X103.1900 Y-91.5500 F400
G1 X103.3200 Y-91.5300 F400
G1 X103.3400 Y-91.5200 F400
G1 X103.3500 Y-91.5100 F400
G1 X103.3600 Y-91.5100 F400
G1 X103.3800 Y-91.5000 F400
G1 X103.3900 Y-91.5000 F400
G1 X103.4300 Y-91.4800 F400
G1 X103.4600 Y-91.4600 F400
G1 X103.5700 Y-91.4100 F400
G1 X103.6100 Y-91.3900 F400
G1 X103.6400 Y-91.3600 F400
G1 X103.6600 Y-91.3500 F400
G1 X103.7600 Y-91.2700 F400
G1 X103.7800 Y-91.2500 F400
G1 X103.7900 Y-91.2500 F400
G1 X105.2500 Y-89.7900 F400
G1 X105.2600 Y-89.7700 F400
G1 X105.4100 Y-89.5700 F400
G1 X105.4200 Y-89.5600 F400
G1 X105.4200 Y-89.5500 F400
G1 X105.5200 Y-89.3200 F400
G1 X105.5300 Y-89.3000 F400
G1 X105.5700 Y-89.0500 F400
G1 X105.5700 Y-89.0200 F400
G1 X105.5600 Y-88.8900 F400
G1 X105.5600 Y-88.8800 F400
G1 X105.5100 Y-88.6300 F400
G1 X105.5000 Y-88.6100 F400
G1 X105.4500 Y-88.5000 F400
G1 X105.4400 Y-88.4800 F400
G1 X105.2900 Y-88.2700 F400
G1 X105.2800 Y-88.2500 F400
G1 X105.1900 Y-88.1600 F400
G1 X105.1700 Y-88.1500 F400
G1 X104.9600 Y-88.0100 F400
G1 X104.9400 Y-88.0000 F400
G1 X104.8300 Y-87.9500 F400
G1 X104.8200 Y-87.9500 F400
G1 X104.8100 Y-87.9400 F400
G1 X104.5600 Y-87.8900 F400
G1 X104.3900 Y-87.8900 F400
G1 X104.1400 Y-87.9300 F400
G1 X104.1200 Y-87.9400 F400
G1 X104.1100 Y-87.9400 F400
G1 X103.8800 Y-88.0500 F400
G1 X103.8700 Y-88.0600 F400
G1 X103.8600 Y-88.0600 F400
G1 X103.6800 Y-88.2000 F400
G1 X102.5300 Y-89.3500 F400
G1 X92.9900 Y-89.3500 F400
G1 X92.7400 Y-89.3800 F400
G1 X92.7200 Y-89.3900 F400
G1 X92.6000 Y-89.4300 F400
G1 X92.5800 Y-89.4300 F400
G1 X92.4500 Y-89.5000 F400
G1 X92.1300 Y-89.5000 F400
G1 X92.0900 Y-89.5200 F400
G1 X92.0500 Y-89.5600 F400
G1 X92.0500 Y-89.5800 F400
G1 X92.0400 Y-89.6000 F400
G1 X92.0400 Y-89.9100 F400
G1 X91.9900 Y-90.0100 F400
G1 X91.9200 Y-90.2500 F400
G1 X91.9100 Y-90.2700 F400
G1 X91.8900 Y-90.5200 F400
G1 X91.8900 Y-90.5500 F400
G1 X91.9400 Y-90.8000 F400
G1 X91.9500 Y-90.8200 F400
G1 X91.9500 Y-90.8300 F400
G1 X92.0400 Y-91.0100 F400
G1 X92.0400 Y-91.3300 F400
G1 X92.0600 Y-91.3700 F400
G1 X92.1000 Y-91.4100 F400
G1 X92.1200 Y-91.4100 F400
G1 X92.1400 Y-91.4200 F400
G1 X92.4800 Y-91.4200 F400
G1 X92.6000 Y-91.4900 F400
G1 X92.6200 Y-91.5000 F400
G1 X92.6300 Y-91.5100 F400
G1 X92.9800 Y-91.5700 F400
G1 X103.0700 Y-91.5700 F400
G1 X103.0900 Y-91.5500
G0 Z3
; Move to the first point
G0 Z3
G0 X107.2200 Y-99.0900
; ----- Depth step 0.1 / 0.1 -----
G1 Z-0.1000 F80
G1 X107.2300 Y-99.0800 F400
G1 X107.3500 Y-99.0500 F400
G1 X107.3700 Y-99.0500 F400
G1 X107.6000 Y-98.9400 F400
G1 X107.6200 Y-98.9200 F400
G1 X107.8100 Y-98.7500 F400
G1 X107.8200 Y-98.7400 F400
G1 X107.9000 Y-98.6400 F400
G1 X107.9100 Y-98.6200 F400
G1 X108.0300 Y-98.4000 F400
G1 X108.0400 Y-98.3800 F400
G1 X108.0500 Y-98.3700 F400
G1 X108.1100 Y-98.0200 F400
G1 X108.1100 Y-88.9900 F400
G1 X108.0800 Y-88.7400 F400
G1 X108.0700 Y-88.7200 F400
G1 X108.0300 Y-88.6000 F400
G1 X108.0300 Y-88.5800 F400
G1 X108.0100 Y-88.5400 F400
G1 X108.0100 Y-88.0800 F400
G1 X107.9900 Y-88.0400 F400
G1 X107.9500 Y-88.0000 F400
G1 X107.9300 Y-88.0000 F400
G1 X107.9100 Y-87.9900 F400
G1 X107.4500 Y-87.9900 F400
G1 X107.2100 Y-87.9200 F400
G1 X107.1900 Y-87.9100 F400
G1 X106.9400 Y-87.8900 F400
G1 X106.9100 Y-87.8900 F400
G1 X106.6600 Y-87.9400 F400
G1 X106.6400 Y-87.9500 F400
G1 X106.6300 Y-87.9500 F400
G1 X106.5500 Y-87.9900 F400
G1 X106.0800 Y-87.9900 F400
G1 X106.0400 Y-88.0100 F400
G1 X106.0000 Y-88.0500 F400
G1 X106.0000 Y-88.0700 F400
G1 X105.9900 Y-88.0900 F400
G1 X105.9900 Y-88.5400 F400
G1 X105.9600 Y-88.6000 F400
G1 X105.9600 Y-88.6200 F400
G1 X105.9500 Y-88.6300 F400
G1 X105.8900 Y-88.9800 F400
G1 X105.8900 Y-98.0100 F400
G1 X105.9200 Y-98.2600 F400
G1 X105.9300 Y-98.2800 F400
G1 X105.9700 Y-98.4000 F400
G1 X105.9800 Y-98.4200 F400
G1 X106.1000 Y-98.6400 F400
G1 X106.1100 Y-98.6600 F400
G1 X106.1900 Y-98.7600 F400
G1 X106.2000 Y-98.7700 F400
G1 X106.4000 Y-98.9300 F400
G1 X106.4200 Y-98.9400 F400
G1 X106.5300 Y-99.0000 F400
G1 X106.5500 Y-99.0100 F400
G1 X106.7900 Y-99.0800 F400
G1 X106.8100 Y-99.0900 F400
G1 X107.0600 Y-99.1100 F400
G1 X107.0900 Y-99.1100 F400
G1 X107.2200 Y-99.0900
G0 Z3
; Move to the first point
G0 Z3
G0 X99.6000 Y-99.0900
; ----- Depth step 0.1 / 0.1 -----
G1 Z-0.1000 F80
G1 X99.6100 Y-99.0800 F400
G1 X99.7300 Y-99.0500 F400
G1 X99.7500 Y-99.0500 F400
G1 X99.9800 Y-98.9400 F400
G1 X100.0000 Y-98.9200 F400
G1 X100.1900 Y-98.7500 F400
G1 X100.2000 Y-98.7400 F400
G1 X100.2800 Y-98.6400 F400
G1 X100.2900 Y-98.6200 F400
G1 X100.4100 Y-98.4000 F400
G1 X100.4200 Y-98.3800 F400
G1 X100.4300 Y-98.3700 F400
G1 X100.4900 Y-98.0200 F400
G1 X100.4900 Y-95.3100 F400
G1 X100.4500 Y-95.0600 F400
G1 X100.4400 Y-95.0400 F400
G1 X100.4400 Y-95.0300 F400
G1 X100.3300 Y-94.8000 F400
G1 X100.2900 Y-94.7600 F400
G1 X100.3000 Y-94.7600 F400
G1 X100.2800 Y-94.7200 F400
G1 X100.2700 Y-94.7200 F400
G1 X100.1900 Y-94.6200 F400
G1 X100.1900 Y-94.6100 F400
G1 X97.7900 Y-92.2100 F400
G1 X97.7500 Y-92.1900 F400
G1 X97.7600 Y-92.1900 F400
G1 X97.7500 Y-92.1800 F400
G1 X97.7400 Y-92.1800 F400
G1 X97.6400 Y-92.1000 F400
G1 X97.6300 Y-92.0900 F400
G1 X97.5700 Y-92.0500 F400
G1 X97.5500 Y-92.0400 F400
G1 X97.4800 Y-92.0100 F400
G1 X97.4700 Y-92.0100 F400
G1 X97.4000 Y-91.9700 F400
G1 X97.3800 Y-91.9600 F400
G1 X97.3400 Y-91.9500 F400
G1 X97.3100 Y-91.9400 F400
G1 X97.3000 Y-91.9300 F400
G1 X97.0500 Y-91.8900 F400
G1 X92.9900 Y-91.8900 F400
G1 X92.7400 Y-91.9200 F400
G1 X92.7200 Y-91.9300 F400
G1 X92.6000 Y-91.9700 F400
G1 X92.5800 Y-91.9800 F400
G1 X92.3600 Y-92.1000 F400
G1 X92.3400 Y-92.1100 F400
G1 X92.2400 Y-92.1900 F400
G1 X92.2300 Y-92.2000 F400
G1 X92.0700 Y-92.4000 F400
G1 X92.0600 Y-92.4200 F400
G1 X92.0000 Y-92.5300 F400
G1 X91.9900 Y-92.5500 F400
G1 X91.9200 Y-92.7900 F400
G1 X91.9100 Y-92.8100 F400
G1 X91.8900 Y-93.0600 F400
G1 X91.8900 Y-93.0900 F400
G1 X91.9400 Y-93.3400 F400
G1 X91.9500 Y-93.3600 F400
G1 X91.9500 Y-93.3700 F400
G1 X92.0600 Y-93.6000 F400
G1 X92.0800 Y-93.6200 F400
G1 X92.2500 Y-93.8100 F400
G1 X92.2600 Y-93.8200 F400
G1 X92.3600 Y-93.9000 F400
G1 X92.3800 Y-93.9100 F400
G1 X92.6000 Y-94.0300 F400
G1 X92.6200 Y-94.0400 F400
G1 X92.6300 Y-94.0500 F400
G1 X92.9800 Y-94.1100 F400
G1 X96.5300 Y-94.1100 F400
G1 X98.2700 Y-95.8500 F400
G1 X98.2700 Y-98.0100 F400
G1 X98.3000 Y-98.2600 F400
G1 X98.3100 Y-98.2800 F400
G1 X98.3500 Y-98.4000 F400
G1 X98.3600 Y-98.4200 F400
G1 X98.4800 Y-98.6400 F400
G1 X98.4900 Y-98.6600 F400
G1 X98.5700 Y-98.7600 F400
G1 X98.5800 Y-98.7700 F400
G1 X98.7800 Y-98.9300 F400
G1 X98.8000 Y-98.9400 F400
G1 X98.9100 Y-99.0000 F400
G1 X98.9300 Y-99.0100 F400
G1 X99.1700 Y-99.0800 F400
G1 X99.1900 Y-99.0900 F400
G1 X99.4400 Y-99.1100 F400
G1 X99.4700 Y-99.1100 F400
G1 X99.6000 Y-99.0900
G0 Z3

; ========== Pass 2 ==========
; Move to the first point
G0 Z3
G0 X99.6200 Y-99.2600
; ----- Depth step 0.1 / 0.1 -----
G1 Z-0.1000 F80
G1 X99.6500 Y-99.2500 F400
G1 X99.7700 Y-99.2200 F400
G1 X99.8000 Y-99.2100 F400
G1 X99.8200 Y-99.2000 F400
G1 X100.0500 Y-99.0900 F400
G1 X100.0800 Y-99.0800 F400
G1 X100.1100 Y-99.0500 F400
G1 X100.1200 Y-99.0500 F400
G1 X100.3100 Y-98.8800 F400
G1 X100.3300 Y-98.8500 F400
G1 X100.3400 Y-98.8400 F400
G1 X100.4200 Y-98.7400 F400
G1 X100.4400 Y-98.7200 F400
G1 X100.4500 Y-98.7000 F400
G1 X100.5700 Y-98.4800 F400
G1 X100.5900 Y-98.4200 F400
G1 X100.6000 Y-98.4000 F400
G1 X100.6600 Y-98.0500 F400
G1 X100.6600 Y-95.2900 F400
G1 X100.6200 Y-95.0400 F400
G1 X100.6100 Y-95.0000 F400
G1 X100.6000 Y-94.9700 F400
G1 X100.5900 Y-94.9600 F400
G1 X100.4800 Y-94.7300 F400
G1 X100.4700 Y-94.7000 F400
G1 X100.4500 Y-94.6800 F400
G1 X100.4400 Y-94.6600 F400
G1 X100.4200 Y-94.6300 F400
G1 X100.4100 Y-94.6200 F400
G1 X100.3300 Y-94.5200 F400
G1 X100.3100 Y-94.4900 F400
G1 X97.9100 Y-92.0900 F400
G1 X97.8800 Y-92.0700 F400
G1 X97.8700 Y-92.0600 F400
G1 X97.8400 Y-92.0400 F400
G1 X97.7400 Y-91.9600 F400
G1 X97.7300 Y-91.9500 F400
G1 X97.6700 Y-91.9100 F400
G1 X97.6300 Y-91.8900 F400
G1 X97.6200 Y-91.8800 F400
G1 X97.5500 Y-91.8500 F400
G1 X97.5400 Y-91.8500 F400
G1 X97.4900 Y-91.8200 F400
G1 X97.4500 Y-91.8000 F400
G1 X97.3900 Y-91.7800 F400
G1 X97.4000 Y-91.7800 F400
G1 X97.3700 Y-91.7700 F400
G1 X97.3300 Y-91.7700 F400
G1 X97.3200 Y-91.7600 F400
G1 X97.1900 Y-91.7400 F400
G1 X103.0900 Y-91.7400 F400
G1 X103.1200 Y-91.7300 F400
G1 X103.1700 Y-91.7300 F400
G1 X103.2000 Y-91.7200 F400
G1 X103.2000 Y-91.7100 F400
G1 X103.2100 Y-91.7200 F400
G1 X103.3400 Y-91.7000 F400
G1 X103.3800 Y-91.6900 F400
G1 X103.4100 Y-91.6800 F400
G1 X103.4400 Y-91.6600 F400
G1 X103.4700 Y-91.6500 F400
G1 X103.5100 Y-91.6400 F400
G1 X103.5100 Y-91.6300 F400
G1 X103.5300 Y-91.6100 F400
G1 X103.5400 Y-91.6200 F400
G1 X103.6500 Y-91.5700 F400
G1 X103.7100 Y-91.5300 F400
G1 X103.7200 Y-91.5100 F400
G1 X103.7400 Y-91.5100 F400
G1 X103.7600 Y-91.4900 F400
G1 X103.8400 Y-91.4200 F400
G1 X103.8500 Y-91.4200 F400
G1 X103.8800 Y-91.4000 F400
G1 X103.9000 Y-91.3700 F400
G1 X103.9100 Y-91.3700 F400
G1 X105.3700 Y-89.9100 F400
G1 X105.3900 Y-89.8800 F400
G1 X105.5400 Y-89.6800 F400
G1 X105.5800 Y-89.6200 F400
G1 X105.6800 Y-89.3900 F400
G1 X105.6900 Y-89.3600 F400
G1 X105.7000 Y-89.3200 F400
G1 X105.7200 Y-89.2200 F400
G1 X105.7200 Y-98.0300 F400
G1 X105.7500 Y-98.2800 F400
G1 X105.7600 Y-98.3200 F400
G1 X105.7600 Y-98.3400 F400
G1 X105.8000 Y-98.4600 F400
G1 X105.8200 Y-98.4900 F400
G1 X105.8200 Y-98.5000 F400
G1 X105.9400 Y-98.7200 F400
G1 X105.9600 Y-98.7500 F400
G1 X105.9700 Y-98.7600 F400
G1 X106.0500 Y-98.8600 F400
G1 X106.1000 Y-98.9100 F400
G1 X106.3000 Y-99.0700 F400
G1 X106.3200 Y-99.0900 F400
G1 X106.3400 Y-99.1000 F400
G1 X106.4500 Y-99.1600 F400
G1 X106.4800 Y-99.1700 F400
G1 X106.5000 Y-99.1800 F400
G1 X106.7400 Y-99.2500 F400
G1 X106.7800 Y-99.2600 F400
G1 X106.8000 Y-99.2600 F400
G1 X107.0500 Y-99.2800 F400
G1 X107.1100 Y-99.2800 F400
G1 X107.2400 Y-99.2600 F400
G1 X107.2700 Y-99.2500 F400
G1 X107.3900 Y-99.2200 F400
G1 X107.4200 Y-99.2100 F400
G1 X107.4400 Y-99.2000 F400
G1 X107.6700 Y-99.0900 F400
G1 X107.7000 Y-99.0800 F400
G1 X107.7300 Y-99.0500 F400
G1 X107.7400 Y-99.0500 F400
G1 X107.9300 Y-98.8800 F400
G1 X107.9500 Y-98.8500 F400
G1 X107.9600 Y-98.8400 F400
G1 X108.0400 Y-98.7400 F400
G1 X108.0600 Y-98.7200 F400
G1 X108.0700 Y-98.7000 F400
G1 X108.1900 Y-98.4800 F400
G1 X108.2100 Y-98.4200 F400
G1 X108.2200 Y-98.4000 F400
G1 X108.2800 Y-98.0500 F400
G1 X108.2800 Y-88.9700 F400
G1 X108.2500 Y-88.7200 F400
G1 X108.2400 Y-88.6800 F400
G1 X108.2400 Y-88.6600 F400
G1 X108.2000 Y-88.5400 F400
G1 X108.1800 Y-88.5100 F400
G1 X108.1800 Y-88.0600 F400
G1 X108.1600 Y-88.0000 F400
G1 X108.1500 Y-87.9600 F400
G1 X108.1300 Y-87.9300 F400
G1 X108.1000 Y-87.9100 F400
G1 X108.0800 Y-87.8800 F400
G1 X108.0500 Y-87.8600 F400
G1 X108.0200 Y-87.8500 F400
G1 X107.9800 Y-87.8300 F400
G1 X107.9500 Y-87.8200 F400
G1 X107.5000 Y-87.8200 F400
G1 X107.2600 Y-87.7500 F400
G1 X107.2200 Y-87.7400 F400
G1 X107.2000 Y-87.7400 F400
G1 X106.9500 Y-87.7200 F400
G1 X106.8800 Y-87.7200 F400
G1 X106.8800 Y-87.7300 F400
G1 X106.6300 Y-87.7800 F400
G1 X106.5900 Y-87.7800 F400
G1 X106.5600 Y-87.8000 F400
G1 X106.5500 Y-87.8000 F400
G1 X106.5100 Y-87.8200 F400
G1 X106.0600 Y-87.8200 F400
G1 X106.0000 Y-87.8400 F400
G1 X105.9600 Y-87.8500 F400
G1 X105.9300 Y-87.8700 F400
G1 X105.9100 Y-87.9000 F400
G1 X105.8800 Y-87.9200 F400
G1 X105.8600 Y-87.9500 F400
G1 X105.8500 Y-87.9800 F400
G1 X105.8300 Y-88.0200 F400
G1 X105.8200 Y-88.0500 F400
G1 X105.8200 Y-88.5000 F400
G1 X105.8100 Y-88.5200 F400
G1 X105.8000 Y-88.5600 F400
G1 X105.7900 Y-88.5900 F400
G1 X105.7800 Y-88.6000 F400
G1 X105.7300 Y-88.8800 F400
G1 X105.7200 Y-88.8500 F400
G1 X105.6700 Y-88.6000 F400
G1 X105.6700 Y-88.5600 F400
G1 X105.6600 Y-88.5300 F400
G1 X105.6100 Y-88.4200 F400
G1 X105.5900 Y-88.3900 F400
G1 X105.5800 Y-88.3800 F400
G1 X105.4300 Y-88.1700 F400
G1 X105.4100 Y-88.1400 F400
G1 X105.3100 Y-88.0400 F400
G1 X105.2800 Y-88.0200 F400
G1 X105.2700 Y-88.0100 F400
G1 X105.0600 Y-87.8700 F400
G1 X105.0200 Y-87.8500 F400
G1 X105.0200 Y-87.8400 F400
G1 X104.9100 Y-87.7900 F400
G1 X104.8700 Y-87.7800 F400
G1 X104.8400 Y-87.7800 F400
G1 X104.5900 Y-87.7300 F400
G1 X104.5600 Y-87.7200 F400
G1 X104.3700 Y-87.7200 F400
G1 X104.1200 Y-87.7600 F400
G1 X104.0800 Y-87.7700 F400
G1 X104.0500 Y-87.7800 F400
G1 X104.0400 Y-87.7900 F400
G1 X103.8100 Y-87.9000 F400
G1 X103.7800 Y-87.9100 F400
G1 X103.7600 Y-87.9300 F400
G1 X103.5800 Y-88.0700 F400
G1 X103.5500 Y-88.0900 F400
G1 X102.4600 Y-89.1800 F400
G1 X92.9700 Y-89.1800 F400
G1 X92.7200 Y-89.2100 F400
G1 X92.6800 Y-89.2200 F400
G1 X92.6600 Y-89.2200 F400
G1 X92.5400 Y-89.2600 F400
G1 X92.5100 Y-89.2800 F400
G1 X92.5000 Y-89.2800 F400
G1 X92.4100 Y-89.3300 F400
G1 X92.1100 Y-89.3300 F400
G1 X92.0500 Y-89.3500 F400
G1 X92.0100 Y-89.3600 F400
G1 X91.9800 Y-89.3800 F400
G1 X91.9600 Y-89.4100 F400
G1 X91.9300 Y-89.4300 F400
G1 X91.9100 Y-89.4600 F400
G1 X91.9000 Y-89.4900 F400
G1 X91.8800 Y-89.5300 F400
G1 X91.8700 Y-89.5600 F400
G1 X91.8700 Y-89.8500 F400
G1 X91.8400 Y-89.9100 F400
G1 X91.8300 Y-89.9400 F400
G1 X91.8200 Y-89.9600 F400
G1 X91.7500 Y-90.2000 F400
G1 X91.7400 Y-90.2400 F400
G1 X91.7400 Y-90.2600 F400
G1 X91.7200 Y-90.5100 F400
G1 X91.7200 Y-90.5800 F400
G1 X91.7300 Y-90.5800 F400
G1 X91.7800 Y-90.8300 F400
G1 X91.7800 Y-90.8700 F400
G1 X91.8000 Y-90.9000 F400
G1 X91.8700 Y-91.0400 F400
G1 X91.8700 Y-91.3500 F400
G1 X91.8900 Y-91.4100 F400
G1 X91.9000 Y-91.4500 F400
G1 X91.9200 Y-91.4800 F400
G1 X91.9500 Y-91.5000 F400
G1 X91.9700 Y-91.5300 F400
G1 X92.0000 Y-91.5500 F400
G1 X92.0300 Y-91.5600 F400
G1 X92.0700 Y-91.5800 F400
G1 X92.1000 Y-91.5900 F400
G1 X92.4200 Y-91.5900 F400
G1 X92.5100 Y-91.6400 F400
G1 X92.5400 Y-91.6600 F400
G1 X92.5800 Y-91.6700 F400
G1 X92.6000 Y-91.6800 F400
G1 X92.8900 Y-91.7300 F400
G1 X92.7200 Y-91.7500 F400
G1 X92.6800 Y-91.7600 F400
G1 X92.6600 Y-91.7600 F400
G1 X92.5400 Y-91.8000 F400
G1 X92.5100 Y-91.8200 F400
G1 X92.5000 Y-91.8200 F400
G1 X92.2800 Y-91.9400 F400
G1 X92.2500 Y-91.9600 F400
G1 X92.2400 Y-91.9700 F400
G1 X92.1400 Y-92.0500 F400
G1 X92.0900 Y-92.1000 F400
G1 X91.9300 Y-92.3000 F400
G1 X91.9100 Y-92.3200 F400
G1 X91.9000 Y-92.3400 F400
G1 X91.8400 Y-92.4500 F400
G1 X91.8300 Y-92.4800 F400
G1 X91.8200 Y-92.5000 F400
G1 X91.7500 Y-92.7400 F400
G1 X91.7400 Y-92.7800 F400
G1 X91.7400 Y-92.8000 F400
G1 X91.7200 Y-93.0500 F400
G1 X91.7200 Y-93.1200 F400
G1 X91.7300 Y-93.1200 F400
G1 X91.7800 Y-93.3700 F400
G1 X91.7800 Y-93.4100 F400
G1 X91.8000 Y-93.4400 F400
G1 X91.9100 Y-93.6700 F400
G1 X91.9200 Y-93.7000 F400
G1 X91.9500 Y-93.7300 F400
G1 X91.9500 Y-93.7400 F400
G1 X92.1200 Y-93.9300 F400
G1 X92.1500 Y-93.9500 F400
G1 X92.1600 Y-93.9600 F400
G1 X92.2600 Y-94.0400 F400
G1 X92.2800 Y-94.0600 F400
G1 X92.3000 Y-94.0700 F400
G1 X92.5200 Y-94.1900 F400
G1 X92.5800 Y-94.2100 F400
G1 X92.6000 Y-94.2200 F400
G1 X92.9500 Y-94.2800 F400
G1 X96.4600 Y-94.2800 F400
G1 X98.1000 Y-95.9200 F400
G1 X98.1000 Y-98.0300 F400
G1 X98.1300 Y-98.2800 F400
G1 X98.1400 Y-98.3200 F400
G1 X98.1400 Y-98.3400 F400
G1 X98.1800 Y-98.4600 F400
G1 X98.2000 Y-98.4900 F400
G1 X98.2000 Y-98.5000 F400
G1 X98.3200 Y-98.7200 F400
G1 X98.3400 Y-98.7500 F400
G1 X98.3500 Y-98.7600 F400
G1 X98.4300 Y-98.8600 F400
G1 X98.4800 Y-98.9100 F400
G1 X98.6800 Y-99.0700 F400
G1 X98.7000 Y-99.0900 F400
G1 X98.7200 Y-99.1000 F400
G1 X98.8300 Y-99.1600 F400
G1 X98.8600 Y-99.1700 F400
G1 X98.8800 Y-99.1800 F400
G1 X99.1200 Y-99.2500 F400
G1 X99.1600 Y-99.2600 F400
G1 X99.1800 Y-99.2600 F400
G1 X99.4300 Y-99.2800 F400
G1 X99.4900 Y-99.2800 F400
G1 X99.6200 Y-99.2600
G0 Z3

; ========== Pass 3 ==========
; Move to the first point
G0 Z3
G0 X99.6500 Y-99.4300
; ----- Depth step 0.1 / 0.1 -----
G1 Z-0.1000 F80
G1 X99.8100 Y-99.3900 F400
G1 X99.8600 Y-99.3700 F400
G1 X99.9000 Y-99.3600 F400
G1 X100.1300 Y-99.2500 F400
G1 X100.1800 Y-99.2200 F400
G1 X100.2200 Y-99.1900 F400
G1 X100.2300 Y-99.1800 F400
G1 X100.4200 Y-99.0100 F400
G1 X100.4600 Y-98.9700 F400
G1 X100.4700 Y-98.9500 F400
G1 X100.5500 Y-98.8500 F400
G1 X100.5900 Y-98.8100 F400
G1 X100.6000 Y-98.7900 F400
G1 X100.7200 Y-98.5700 F400
G1 X100.7400 Y-98.5100 F400
G1 X100.7600 Y-98.4600 F400
G1 X100.7700 Y-98.4300 F400
G1 X100.8300 Y-98.0800 F400
G1 X100.8300 Y-95.2600 F400
G1 X100.7900 Y-95.0100 F400
G1 X100.7700 Y-94.9500 F400
G1 X100.7500 Y-94.9000 F400
G1 X100.7500 Y-94.8800 F400
G1 X100.6400 Y-94.6500 F400
G1 X100.6100 Y-94.6000 F400
G1 X100.5900 Y-94.5800 F400
G1 X100.5700 Y-94.5400 F400
G1 X100.5400 Y-94.5100 F400
G1 X100.4600 Y-94.4100 F400
G1 X100.4300 Y-94.3700 F400
G1 X97.9900 Y-91.9300 F400
G1 X97.9600 Y-91.9100 F400
G1 X103.1100 Y-91.9100 F400
G1 X103.1600 Y-91.9000 F400
G1 X103.1900 Y-91.9000 F400
G1 X103.2400 Y-91.8900 F400
G1 X103.3700 Y-91.8700 F400
G1 X103.4200 Y-91.8500 F400
G1 X103.4800 Y-91.8400 F400
G1 X103.5100 Y-91.8200 F400
G1 X103.5400 Y-91.8100 F400
G1 X103.5900 Y-91.7900 F400
G1 X103.6000 Y-91.7800 F400
G1 X103.6300 Y-91.7600 F400
G1 X103.7200 Y-91.7200 F400
G1 X103.7700 Y-91.7000 F400
G1 X103.7900 Y-91.6800 F400
G1 X103.8400 Y-91.6500 F400
G1 X103.8700 Y-91.6200 F400
G1 X103.9300 Y-91.5700 F400
G1 X103.9800 Y-91.5300 F400
G1 X104.0200 Y-91.5000 F400
G1 X105.5300 Y-89.9900 F400
G1 X105.5300 Y-89.9800 F400
G1 X105.5500 Y-89.9500 F400
G1 X105.5500 Y-98.0500 F400
G1 X105.5800 Y-98.3000 F400
G1 X105.5900 Y-98.3600 F400
G1 X105.6600 Y-98.5700 F400
G1 X105.6700 Y-98.5900 F400
G1 X105.7900 Y-98.8100 F400
G1 X105.8200 Y-98.8600 F400
G1 X105.8400 Y-98.8700 F400
G1 X105.9200 Y-98.9700 F400
G1 X105.9900 Y-99.0400 F400
G1 X106.1900 Y-99.2000 F400
G1 X106.2300 Y-99.2400 F400
G1 X106.2500 Y-99.2500 F400
G1 X106.3600 Y-99.3100 F400
G1 X106.4500 Y-99.3400 F400
G1 X106.6900 Y-99.4100 F400
G1 X106.7500 Y-99.4300 F400
G1 X106.7800 Y-99.4300 F400
G1 X107.0300 Y-99.4500 F400
G1 X107.1400 Y-99.4500 F400
G1 X107.2700 Y-99.4300 F400
G1 X107.4300 Y-99.3900 F400
G1 X107.4800 Y-99.3700 F400
G1 X107.5200 Y-99.3600 F400
G1 X107.7500 Y-99.2500 F400
G1 X107.8000 Y-99.2200 F400
G1 X107.8400 Y-99.1900 F400
G1 X107.8500 Y-99.1800 F400
G1 X108.0400 Y-99.0100 F400
G1 X108.0800 Y-98.9700 F400
G1 X108.0900 Y-98.9500 F400
G1 X108.1700 Y-98.8500 F400
G1 X108.2100 Y-98.8100 F400
G1 X108.2200 Y-98.7900 F400
G1 X108.3400 Y-98.5700 F400
G1 X108.3600 Y-98.5100 F400
G1 X108.3800 Y-98.4600 F400
G1 X108.3900 Y-98.4300 F400
G1 X108.4500 Y-98.0800 F400
G1 X108.4500 Y-88.9500 F400
G1 X108.4200 Y-88.7000 F400
G1 X108.4100 Y-88.6400 F400
G1 X108.3500 Y-88.4600 F400
G1 X108.3500 Y-88.0400 F400
G1 X108.3400 Y-87.9900 F400
G1 X108.3200 Y-87.9300 F400
G1 X108.3000 Y-87.8800 F400
G1 X108.2600 Y-87.8300 F400
G1 X108.2300 Y-87.7900 F400
G1 X108.1900 Y-87.7500 F400
G1 X108.0900 Y-87.6900 F400
G1 X108.0400 Y-87.6700 F400
G1 X107.9800 Y-87.6500 F400
G1 X107.5200 Y-87.6500 F400
G1 X107.3100 Y-87.5900 F400
G1 X107.2500 Y-87.5700 F400
G1 X107.2200 Y-87.5700 F400
G1 X106.9700 Y-87.5500 F400
G1 X106.8500 Y-87.5500 F400
G1 X106.8400 Y-87.5600 F400
G1 X106.5400 Y-87.6200 F400
G1 X106.4800 Y-87.6400 F400
G1 X106.4800 Y-87.6500 F400
G1 X106.0400 Y-87.6500 F400
G1 X105.9900 Y-87.6600 F400
G1 X105.9300 Y-87.6800 F400
G1 X105.8800 Y-87.7000 F400
G1 X105.8300 Y-87.7400 F400
G1 X105.7900 Y-87.7700 F400
G1 X105.7500 Y-87.8100 F400
G1 X105.6900 Y-87.9100 F400
G1 X105.6700 Y-87.9600 F400
G1 X105.6500 Y-88.0200 F400
G1 X105.6500 Y-88.1800 F400
G1 X105.5700 Y-88.0700 F400
G1 X105.5300 Y-88.0200 F400
G1 X105.3900 Y-87.8800 F400
G1 X105.1500 Y-87.7200 F400
G1 X105.1000 Y-87.6900 F400
G1 X105.0900 Y-87.6900 F400
G1 X104.9800 Y-87.6400 F400
G1 X104.9200 Y-87.6200 F400
G1 X104.8800 Y-87.6100 F400
G1 X104.6300 Y-87.5600 F400
G1 X104.5700 Y-87.5500 F400
G1 X104.3400 Y-87.5500 F400
G1 X104.0900 Y-87.5900 F400
G1 X104.0300 Y-87.6100 F400
G1 X103.9800 Y-87.6300 F400
G1 X103.9600 Y-87.6300 F400
G1 X103.7300 Y-87.7400 F400
G1 X103.6800 Y-87.7700 F400
G1 X103.6500 Y-87.7900 F400
G1 X103.4700 Y-87.9300 F400
G1 X102.3900 Y-89.0100 F400
G1 X92.9500 Y-89.0100 F400
G1 X92.7000 Y-89.0400 F400
G1 X92.6400 Y-89.0500 F400
G1 X92.4300 Y-89.1200 F400
G1 X92.4200 Y-89.1300 F400
G1 X92.3600 Y-89.1600 F400
G1 X92.0900 Y-89.1600 F400
G1 X92.0400 Y-89.1700 F400
G1 X91.9800 Y-89.1900 F400
G1 X91.9300 Y-89.2100 F400
G1 X91.8800 Y-89.2500 F400
G1 X91.8400 Y-89.2800 F400
G1 X91.8000 Y-89.3200 F400
G1 X91.7400 Y-89.4200 F400
G1 X91.7200 Y-89.4700 F400
G1 X91.7000 Y-89.5300 F400
G1 X91.7000 Y-89.8000 F400
G1 X91.6900 Y-89.8200 F400
G1 X91.6600 Y-89.9100 F400
G1 X91.5900 Y-90.1500 F400
G1 X91.5700 Y-90.2100 F400
G1 X91.5700 Y-90.2400 F400
G1 X91.5500 Y-90.4900 F400
G1 X91.5500 Y-90.6100 F400
G1 X91.5600 Y-90.6200 F400
G1 X91.6200 Y-90.9200 F400
G1 X91.6400 Y-90.9700 F400
G1 X91.7000 Y-91.0900 F400
G1 X91.7000 Y-91.3700 F400
G1 X91.7100 Y-91.4200 F400
G1 X91.7300 Y-91.4800 F400
G1 X91.7500 Y-91.5300 F400
G1 X91.7900 Y-91.5800 F400
G1 X91.8200 Y-91.6200 F400
G1 X91.8600 Y-91.6600 F400
G1 X91.9600 Y-91.7200 F400
G1 X92.0100 Y-91.7400 F400
G1 X92.0700 Y-91.7600 F400
G1 X92.2500 Y-91.7600 F400
G1 X92.1900 Y-91.7900 F400
G1 X92.1400 Y-91.8200 F400
G1 X92.1300 Y-91.8400 F400
G1 X92.0300 Y-91.9200 F400
G1 X91.9600 Y-91.9900 F400
G1 X91.8000 Y-92.1900 F400
G1 X91.7600 Y-92.2300 F400
G1 X91.7500 Y-92.2500 F400
G1 X91.6900 Y-92.3600 F400
G1 X91.6600 Y-92.4500 F400
G1 X91.5900 Y-92.6900 F400
G1 X91.5700 Y-92.7500 F400
G1 X91.5700 Y-92.7800 F400
G1 X91.5500 Y-93.0300 F400
G1 X91.5500 Y-93.1500 F400
G1 X91.5600 Y-93.1600 F400
G1 X91.6200 Y-93.4600 F400
G1 X91.6400 Y-93.5200 F400
G1 X91.7500 Y-93.7500 F400
G1 X91.7800 Y-93.8000 F400
G1 X91.8100 Y-93.8400 F400
G1 X91.8200 Y-93.8500 F400
G1 X91.9900 Y-94.0400 F400
G1 X92.0300 Y-94.0800 F400
G1 X92.0500 Y-94.0900 F400
G1 X92.1500 Y-94.1700 F400
G1 X92.1900 Y-94.2100 F400
G1 X92.2100 Y-94.2200 F400
G1 X92.4300 Y-94.3400 F400
G1 X92.4900 Y-94.3600 F400
G1 X92.5400 Y-94.3800 F400
G1 X92.5700 Y-94.3900 F400
G1 X92.9200 Y-94.4500 F400
G1 X96.3900 Y-94.4500 F400
G1 X97.9300 Y-95.9900 F400
G1 X97.9300 Y-98.0500 F400
G1 X97.9600 Y-98.3000 F400
G1 X97.9700 Y-98.3600 F400
G1 X98.0400 Y-98.5700 F400
G1 X98.0500 Y-98.5900 F400
G1 X98.1700 Y-98.8100 F400
G1 X98.2000 Y-98.8600 F400
G1 X98.2200 Y-98.8700 F400
G1 X98.3000 Y-98.9700 F400
G1 X98.3700 Y-99.0400 F400
G1 X98.5700 Y-99.2000 F400
G1 X98.6100 Y-99.2400 F400
G1 X98.6300 Y-99.2500 F400
G1 X98.7400 Y-99.3100 F400
G1 X98.8300 Y-99.3400 F400
G1 X99.0700 Y-99.4100 F400
G1 X99.1300 Y-99.4300 F400
G1 X99.1600 Y-99.4300 F400
G1 X99.4100 Y-99.4500 F400
G1 X99.5200 Y-99.4500 F400
G1 X99.6500 Y-99.4300
G0 Z3

; End of program
G0 Z5 ; Go to finish Z
G0 X0 Y0 ; Go to Zero
M5 ; Spindle off
M30 ; end
