; Generated by CopperCrab
; Tool: New End Mill
; Depth: 2mm
G21 ; mm
G90 ; absolute coordinates
G17 ; XY plane
G0 Z3
G0 X0 Y0
M3 S15000; Start spindle

; ========== Pass 1 ==========
; Move to the first point
G0 Z3
G0 X110.3100 Y-103.5100
; ----- Depth step 1 / 2 -----
G1 Z-1.0000 F100
G1 X110.6200 Y-103.4500 F600
G1 X110.9300 Y-103.3500 F600
G1 X111.1200 Y-103.2700 F600
G1 X111.1400 Y-103.2600 F600
G1 X111.4100 Y-103.1000 F600
G1 X111.6600 Y-102.9000 F600
G1 X111.8900 Y-102.6800 F600
G1 X112.0800 Y-102.4300 F600
G1 X112.2400 Y-102.1600 F600
G1 X112.2600 Y-102.1400 F600
G1 X112.2700 Y-102.1200 F600
G1 X112.3900 Y-101.8300 F600
G1 X112.4700 Y-101.5200 F600
G1 X112.5200 Y-101.2100 F600
G1 X112.5300 Y-101.0000 F600
G1 X112.5200 Y-84.9800 F600
G1 X112.5000 Y-84.6600 F600
G1 X112.4400 Y-84.3500 F600
G1 X112.3400 Y-84.0500 F600
G1 X112.2100 Y-83.7700 F600
G1 X112.0400 Y-83.5000 F600
G1 X111.8300 Y-83.2600 F600
G1 X111.6000 Y-83.0400 F600
G1 X111.3400 Y-82.8600 F600
G1 X111.0700 Y-82.7100 F600
G1 X110.7700 Y-82.6000 F600
G1 X110.4600 Y-82.5200 F600
G1 X110.1500 Y-82.4800 F600
G1 X89.9800 Y-82.4800 F600
G1 X89.6600 Y-82.5000 F600
G1 X89.3500 Y-82.5600 F600
G1 X89.0500 Y-82.6600 F600
G1 X88.7700 Y-82.7900 F600
G1 X88.5000 Y-82.9600 F600
G1 X88.2600 Y-83.1700 F600
G1 X88.0400 Y-83.4000 F600
G1 X87.8600 Y-83.6500 F600
G1 X87.7100 Y-83.9300 F600
G1 X87.6000 Y-84.2300 F600
G1 X87.5200 Y-84.5300 F600
G1 X87.4800 Y-84.8500 F600
G1 X87.4800 Y-101.0200 F600
G1 X87.5000 Y-101.3400 F600
G1 X87.5600 Y-101.6500 F600
G1 X87.6600 Y-101.9500 F600
G1 X87.7900 Y-102.2300 F600
G1 X87.9600 Y-102.5000 F600
G1 X88.1700 Y-102.7400 F600
G1 X88.4000 Y-102.9600 F600
G1 X88.6500 Y-103.1400 F600
G1 X88.9300 Y-103.2900 F600
G1 X89.2300 Y-103.4000 F600
G1 X89.5300 Y-103.4800 F600
G1 X89.8500 Y-103.5200 F600
G1 X89.9800 Y-103.5200 F600
G1 X110.0000 Y-103.5300 F600
G1 X110.3100 Y-103.5100
; ----- Depth step 2 / 2 -----
G1 Z-2.0000 F100
G1 X110.6200 Y-103.4500 F600
G1 X110.9300 Y-103.3500 F600
G1 X111.1200 Y-103.2700 F600
G1 X111.1400 Y-103.2600 F600
G1 X111.4100 Y-103.1000 F600
G1 X111.6600 Y-102.9000 F600
G1 X111.8900 Y-102.6800 F600
G1 X112.0800 Y-102.4300 F600
G1 X112.2400 Y-102.1600 F600
G1 X112.2600 Y-102.1400 F600
G1 X112.2700 Y-102.1200 F600
G1 X112.3900 Y-101.8300 F600
G1 X112.4700 Y-101.5200 F600
G1 X112.5200 Y-101.2100 F600
G1 X112.5300 Y-101.0000 F600
G1 X112.5200 Y-84.9800 F600
G1 X112.5000 Y-84.6600 F600
G1 X112.4400 Y-84.3500 F600
G1 X112.3400 Y-84.0500 F600
G1 X112.2100 Y-83.7700 F600
G1 X112.0400 Y-83.5000 F600
G1 X111.8300 Y-83.2600 F600
G1 X111.6000 Y-83.0400 F600
G1 X111.3400 Y-82.8600 F600
G1 X111.0700 Y-82.7100 F600
G1 X110.7700 Y-82.6000 F600
G1 X110.4600 Y-82.5200 F600
G1 X110.1500 Y-82.4800 F600
G1 X89.9800 Y-82.4800 F600
G1 X89.6600 Y-82.5000 F600
G1 X89.3500 Y-82.5600 F600
G1 X89.0500 Y-82.6600 F600
G1 X88.7700 Y-82.7900 F600
G1 X88.5000 Y-82.9600 F600
G1 X88.2600 Y-83.1700 F600
G1 X88.0400 Y-83.4000 F600
G1 X87.8600 Y-83.6500 F600
G1 X87.7100 Y-83.9300 F600
G1 X87.6000 Y-84.2300 F600
G1 X87.5200 Y-84.5300 F600
G1 X87.4800 Y-84.8500 F600
G1 X87.4800 Y-101.0200 F600
G1 X87.5000 Y-101.3400 F600
G1 X87.5600 Y-101.6500 F600
G1 X87.6600 Y-101.9500 F600
G1 X87.7900 Y-102.2300 F600
G1 X87.9600 Y-102.5000 F600
G1 X88.1700 Y-102.7400 F600
G1 X88.4000 Y-102.9600 F600
G1 X88.6500 Y-103.1400 F600
G1 X88.9300 Y-103.2900 F600
G1 X89.2300 Y-103.4000 F600
G1 X89.5300 Y-103.4800 F600
G1 X89.8500 Y-103.5200 F600
G1 X89.9800 Y-103.5200 F600
G1 X110.0000 Y-103.5300 F600
G1 X110.3100 Y-103.5100
G0 Z3
; Move to the first point
G0 Z3
G0 X92.5300 Y-98.4800
; ----- Depth step 1 / 2 -----
G1 Z-1.0000 F100
G1 X92.5200 Y-87.5200 F600
G1 X107.4800 Y-87.5200 F600
G1 X107.4800 Y-98.4800 F600
G1 X92.5300 Y-98.4800
; ----- Depth step 2 / 2 -----
G1 Z-2.0000 F100
G1 X92.5200 Y-87.5200 F600
G1 X107.4800 Y-87.5200 F600
G1 X107.4800 Y-98.4800 F600
G1 X92.5300 Y-98.4800
G0 Z3

; End of program
G0 Z3 ; Go to finish Z
G0 X0 Y0 ; Go to Zero
M5 ; Spindle off
M30 ; end
